packages/web-icons/svgs/arrow_9_left.svg

<svg viewBox="0 0 22 24" xmlns="http://www.w3.org/2000/svg" class="ridi_icon"><path d="M21.8 2l-3.1-2-8 12 8 12 3.1-2-6.6-10 6.6-10zM11.3 2L8.2 0l-8 12 8 12 3.1-2-6.5-10 6.5-10z"/></svg>

<?xml version="1.0" encoding="UTF-8"?>
<svg width="22px" height="24px" viewBox="0 0 22 24" version="1.1" xmlns="http://www.w3.org/2000/svg">
  <!-- Generator: Sketch 41.2 (35397) - http://www.bohemiancoding.com/sketch -->
  <title>arrow_9_left</title>
  <desc>Created with Sketch.</desc>
  <defs></defs>
  <g id="Page-1" stroke="none" stroke-width="1" fill="none" fill-rule="evenodd">
    <g id="arrow_9_left" fill="#000000">
      <g id="레이어_1">
        <path d="M21.8,2 L18.7,0 L10.7,12 L18.7,24 L21.8,22 L15.2,12 L21.8,2 L21.8,2 Z M11.3,2 L8.2,0 L0.2,12 L8.2,24 L11.3,22 L4.8,12 L11.3,2 L11.3,2 Z" id="Shape"></path>
      </g>
    </g>
  </g>
</svg>
